src/pages/elements/pictograms/images/12_TintsShades_4_dont.svg

<?xml version="1.0" encoding="UTF-8"?>
<svg width="288px" height="288px" viewBox="0 0 288 288" version="1.1" xmlns="http://www.w3.org/2000/svg" xmlns:xlink="http://www.w3.org/1999/xlink">
    <!-- Generator: Sketch 52.4 (67378) - http://www.bohemiancoding.com/sketch -->
    <title>Artboard</title>
    <desc>Created with Sketch.</desc>
    <defs>
        <polygon id="path-1" points="0 184 184 184 184 0 0 0"></polygon>
    </defs>
    <g id="Artboard" stroke="none" stroke-width="1" fill="none" fill-rule="evenodd">
        <rect id="Rectangle-3-Copy-45" fill="#FFFFFF" x="0" y="0" width="288" height="288"></rect>
        <g id="Group-10-Copy-4" transform="translate(52.000000, 52.000000)">
            <polygon id="Fill-1" fill="#FFFFFF" points="0 184 184 184 184 0 0 0"></polygon>
            <g id="Group-9">
                <path d="M8.571525,87.098125 L23.751525,113.387125 L50.046275,98.212875 L34.866275,71.918125 L8.571525,87.098125 Z M22.992525,118.291875 C22.814275,118.291875 22.636025,118.263125 22.457775,118.217125 C21.928775,118.079125 21.474525,117.728375 21.204275,117.251125 L3.954275,87.374125 C3.379275,86.385125 3.718525,85.120125 4.707525,84.550875 L34.584525,67.300875 C35.061775,67.024875 35.631025,66.955875 36.160025,67.093875 C36.689025,67.231875 37.137525,67.576875 37.413525,68.054125 L54.663525,97.936875 C55.232775,98.925875 54.899275,100.185125 53.904525,100.760125 L24.027525,118.010125 C23.711275,118.194125 23.354775,118.291875 22.992525,118.291875 Z" id="Fill-2" fill="#D0B0FF"></path>
                <path d="M141.7858,44.017975 L174.45155,44.017975 L158.12155,15.727975 L141.7858,44.017975 Z M178.03955,48.163725 L138.1978,48.163725 C137.4618,48.163725 136.77755,47.761225 136.40955,47.122975 C136.0358,46.484725 136.0358,45.696975 136.40955,45.058725 L156.32755,10.558725 C157.06355,9.276475 159.1738,9.276475 159.9098,10.558725 L179.8278,45.058725 C180.20155,45.696975 180.20155,46.484725 179.8278,47.122975 C179.4598,47.761225 178.77555,48.163725 178.03955,48.163725 Z" id="Fill-4" fill="#D0B0FF"></path>
                <mask id="mask-2" fill="white">
                    <use xlink:href="#path-1"></use>
                </mask>
                <g id="Clip-7"></g>
                <path d="M76.82,107.2605 L107.18,107.2605 L107.18,76.90625 L76.82,76.90625 L76.82,107.2605 Z M23.0115,173.581 C14.6395,173.581 7.8315,166.77875 7.8315,158.40675 C7.8315,150.03475 14.6395,143.22675 23.0115,143.22675 C31.3835,143.22675 38.1915,150.03475 38.1915,158.40675 C38.1915,166.77875 31.3835,173.581 23.0115,173.581 Z M76.81425,28.842 C76.81425,20.47 83.628,13.662 91.99425,13.662 C100.36625,13.662 107.18,20.47 107.18,28.842 C107.18,37.214 100.36625,44.01625 91.99425,44.01625 C83.628,44.01625 76.81425,37.214 76.81425,28.842 Z M43.71725,39.146 L25.86925,49.45 L8.02125,39.146 L8.02125,18.538 L25.86925,8.234 L43.71725,18.538 L43.71725,39.146 Z M109.24425,72.7605 L94.06425,72.7605 L94.06425,47.955 C103.73575,46.90275 111.31425,38.78375 111.31425,28.842 C111.31425,18.18725 102.65475,9.51625 91.99425,9.51625 C82.0525,9.51625 73.9335,17.1005 72.887,26.76625 L47.85725,26.76625 L47.85725,17.342 C47.85725,16.60025 47.46625,15.92175 46.82225,15.548 L26.90425,4.048 C26.26025,3.68 25.47825,3.68 24.83425,4.048 L4.91625,15.548 C4.27225,15.92175 3.88125,16.60025 3.88125,17.342 L3.88125,40.342 C3.88125,41.08375 4.27225,41.76225 4.91625,42.13025 L24.83425,53.63025 C25.15625,53.81425 25.51275,53.912 25.86925,53.912 C26.2315,53.912 26.58225,53.81425 26.90425,53.63025 L46.82225,42.13025 C47.46625,41.76225 47.85725,41.08375 47.85725,40.342 L47.85725,30.912 L72.887,30.912 C73.8645,39.8935 80.9485,46.9775 89.93,47.955 L89.93,72.7605 L74.74425,72.7605 C73.60575,72.7605 72.68,73.68625 72.68,74.83625 L72.68,108.47375 L36.524,144.62975 C33.03375,141.21425 28.267,139.081 23.0115,139.081 C12.35675,139.081 3.6915,147.752 3.6915,158.40675 C3.6915,169.05575 12.35675,177.72675 23.0115,177.72675 C33.6605,177.72675 42.3315,169.05575 42.3315,158.40675 C42.3315,154.50825 41.15275,150.8915 39.1575,147.84975 L75.601,111.40625 L109.24425,111.40625 C110.3885,111.40625 111.31425,110.4805 111.31425,109.33625 L111.31425,74.83625 C111.31425,73.68625 110.3885,72.7605 109.24425,72.7605 Z" id="Fill-6" fill="#D0B0FF" mask="url(#mask-2)"></path>
                <path d="M160.99425,173.392975 C152.62225,173.392975 145.81425,166.584975 145.81425,158.212975 C145.81425,149.840975 152.62225,143.038725 160.99425,143.038725 C169.36625,143.038725 176.17425,149.840975 176.17425,158.212975 C176.17425,166.584975 169.36625,173.392975 160.99425,173.392975 Z M102.29825,176.060975 L81.69025,176.060975 L71.38625,158.212975 L81.69025,140.370725 L102.29825,140.370725 L112.60225,158.212975 L102.29825,176.060975 Z M151.57,92.076475 C151.57,86.878475 155.802,82.652225 161,82.652225 C166.198,82.652225 170.43,86.878475 170.43,92.076475 C170.43,97.280225 166.198,101.506475 161,101.506475 C155.802,101.506475 151.57,97.280225 151.57,92.076475 Z M163.07,105.445225 C169.5675,104.433225 174.57,98.855725 174.57,92.076475 C174.57,84.595725 168.48075,78.506475 161,78.506475 C153.5135,78.506475 147.43,84.595725 147.43,92.076475 C147.43,98.855725 152.4325,104.433225 158.93,105.445225 L158.93,139.099975 C149.9485,140.077475 142.8645,147.161475 141.88125,156.137225 L116.1845,156.137225 L105.28825,137.265725 C104.92025,136.621725 104.236,136.224975 103.49425,136.224975 L80.49425,136.224975 C79.7525,136.224975 79.06825,136.621725 78.70025,137.265725 L67.20025,157.183725 C66.83225,157.821975 66.83225,158.609725 67.20025,159.247975 L78.70025,179.165975 C79.06825,179.804225 79.7525,180.206725 80.49425,180.206725 L103.49425,180.206725 C104.236,180.206725 104.92025,179.804225 105.28825,179.165975 L116.19025,160.282975 L141.88125,160.282975 C142.92775,169.948725 151.0525,177.538725 160.99425,177.538725 C171.649,177.538725 180.31425,168.867725 180.31425,158.212975 C180.31425,148.276975 172.73575,140.157975 163.07,139.099975 L163.07,105.445225 Z" id="Fill-8" fill="#D0B0FF" mask="url(#mask-2)"></path>
            </g>
        </g>
    </g>
</svg>

<svg xmlns="http://www.w3.org/2000/svg" xmlns:xlink="http://www.w3.org/1999/xlink" viewBox="0 0 288 288"><defs><path id="a" d="M0 184h184V0H0z"/></defs><g fill="none" fill-rule="evenodd"><path fill="#FFF" d="M0 0h288v288H0z"/><path fill="#FFF" d="M52 236h184V52H52z"/><g transform="translate(52 52)"><path d="M8.572 87.098l15.18 26.29 26.294-15.175-15.18-26.295-26.294 15.18zm14.42 31.194c-.178 0-.356-.029-.534-.075a2.037 2.037 0 01-1.254-.966L3.954 87.374a2.061 2.061 0 01.754-2.823L34.585 67.3a2.096 2.096 0 011.575-.207c.529.138.978.483 1.254.96l17.25 29.883a2.064 2.064 0 01-.76 2.823l-29.876 17.25a2.058 2.058 0 01-1.035.282zm118.794-74.274h32.666l-16.33-28.29-16.336 28.29zm36.254 4.146h-39.842c-.736 0-1.42-.403-1.788-1.041a2.04 2.04 0 010-2.064l19.918-34.5c.736-1.283 2.846-1.283 3.582 0l19.918 34.5a2.04 2.04 0 010 2.064 2.075 2.075 0 01-1.788 1.04z" fill="#D0B0FF"/><mask id="b" fill="#fff"><use xlink:href="#a"/></mask><path d="M76.82 107.26h30.36V76.906H76.82v30.354zm-53.808 66.321c-8.373 0-15.18-6.802-15.18-15.174s6.808-15.18 15.18-15.18 15.18 6.808 15.18 15.18-6.808 15.174-15.18 15.174zM76.814 28.842c0-8.372 6.814-15.18 15.18-15.18 8.372 0 15.186 6.808 15.186 15.18s-6.814 15.174-15.186 15.174c-8.366 0-15.18-6.802-15.18-15.174zM43.717 39.146L25.87 49.45 8.021 39.146V18.538L25.87 8.234l17.848 10.304v20.608zm65.527 33.614h-15.18V47.955c9.672-1.052 17.25-9.171 17.25-19.113 0-10.655-8.66-19.326-19.32-19.326-9.942 0-18.06 7.585-19.107 17.25h-25.03v-9.424c0-.742-.39-1.42-1.035-1.794l-19.918-11.5a2.079 2.079 0 00-2.07 0l-19.918 11.5a2.067 2.067 0 00-1.035 1.794v23c0 .742.391 1.42 1.035 1.788l19.918 11.5a2.09 2.09 0 001.035.282c.363 0 .713-.098 1.035-.282l19.918-11.5a2.05 2.05 0 001.035-1.788v-9.43h25.03A19.23 19.23 0 0089.93 47.955V72.76H74.744a2.069 2.069 0 00-2.064 2.076v33.638L36.524 144.63c-3.49-3.416-8.257-5.549-13.512-5.549-10.655 0-19.32 8.671-19.32 19.326 0 10.649 8.665 19.32 19.32 19.32 10.648 0 19.32-8.671 19.32-19.32 0-3.899-1.18-7.516-3.175-10.557l36.444-36.444h33.643c1.144 0 2.07-.925 2.07-2.07v-34.5a2.07 2.07 0 00-2.07-2.076z" fill="#D0B0FF" mask="url(#b)"/><path d="M160.994 173.393c-8.372 0-15.18-6.808-15.18-15.18s6.808-15.174 15.18-15.174 15.18 6.802 15.18 15.174-6.808 15.18-15.18 15.18zm-58.696 2.668H81.69l-10.304-17.848 10.304-17.842h20.608l10.304 17.842-10.304 17.848zm49.272-83.985c0-5.198 4.232-9.424 9.43-9.424 5.198 0 9.43 4.226 9.43 9.424 0 5.204-4.232 9.43-9.43 9.43-5.198 0-9.43-4.226-9.43-9.43zm11.5 13.37c6.498-1.013 11.5-6.59 11.5-13.37 0-7.48-6.09-13.57-13.57-13.57-7.487 0-13.57 6.09-13.57 13.57 0 6.78 5.002 12.357 11.5 13.37V139.1a19.24 19.24 0 00-17.049 17.037h-25.697l-10.896-18.871a2.065 2.065 0 00-1.794-1.041h-23c-.742 0-1.426.397-1.794 1.04l-11.5 19.919a2.068 2.068 0 000 2.064l11.5 19.918a2.077 2.077 0 001.794 1.04h23c.742 0 1.426-.402 1.794-1.04l10.902-18.883h25.691c1.047 9.666 9.172 17.256 19.113 17.256 10.655 0 19.32-8.671 19.32-19.326 0-9.936-7.578-18.055-17.244-19.113v-33.655z" fill="#D0B0FF" mask="url(#b)"/></g></g></svg>
